!!!OTL-incipit: ES WAREN DREI JUNGGESELLEN
!!!ARE: Europa, Mitteleuropa, Deutschland
!!!SCT: Z0069
!!!TXL: @@DE
!!!YEM: Copyright 1995, estate of Helmut Schaffrath.
**kern	**text
*ICvox	*
*M2/4	*
*k[b-]	*
*F:	*
!LO:TX:a:t=Deutſch.	!
{8c	Es
=1	=1
4f	wa-
8e	-ren
8d	drei
=2	=2
4c	Jung-
4f	-ge-
=3	=3
4g	-ſel-
8f}	-len,
{8c	Die
=4	=4
4f	thä-
8e	-ten
8d	ſich
=5	=5
4c	was
4f	ver-
=6	=6
4g	-ʒäh-
8f}	-len,
{8f	ſie
=7	=7
8a	hiel-
8a	-ten
8a	un-
8a	-ter
=8	=8
4a	ſich
4cc	wohl
=9	=9
8b-/	ei-
8b-/	-nen
8b-/	klu-
8b-/	-gen
=10	=10
4g	Rath,
8r}	.
{8f	wer
=11	=11
8e	un-
8g	-ter
8g	ih-
8g	-nen
=12	=12
4g	wohl
(8ccL	das
8b-J)	.
=13	=13
8a	ſchönſte
8a	.
8g	Mä-
8g	-del
=14	=14
4f	hat.
8r}	.
==	==
!!!AGN: Sagen - Lied, Romanze
!!!ONB: ESAC (Essen Associative Code) Database: ZUCCAL
!!!AMT: simple duple
!!!AIN: vox
!!!EED: Helmut Schaffrath
!!!EEV: 1.0
!!!GTL: I. Ernste Romanzen und Sagen.
!!!URL-scan: https://www.digitale-sammlungen.de/de/view/bsb11160571?page=142
!!!ENC: Anna Maria Matuszewska
!!!EEV: 2025/01/24
*-	*-
